X:852
T:Pollonesse 1832-08
O:Södermanland
R:Slängpolska
B:Notbok 1832 från Sörmlands museum
N:[[http://www.sormlandsmusikarkiv.se/noter/1832/1832.html]]
Z:Jonas Brunskog
M:3/4
L:1/8
Q:1/4=100
K:D 
|:DF Adfa|afgefa|DFAd eg|fa e2e2:| 
|:fe/2f/2 gfed|cBAGFD|fe/2f/2 gfed|cBAGFD|DF Adeg|fe/2c/2 d2D2:|
(:musicend:)

(:music:)
